X:945
T: Fat of the Land
S: B.Breathnach:"Ceol Rince na hEireann" IV/190 (gan ainm)
Z: B.Black
L: 1/8
M: 4/4
R: reel
K: D
AFDF A2 Bc|dBcA BcdB|AFDF A2 BA|dBAG FD D2 :|
a2 fd d2 fd|d2 fa ge e2|a2 fd d2 fa|g2 eg fd d2|
a2 fd d2 fd|d2 fa ge e2|afge fdec|dBAG FD D2 ||
